X:10605
%4727
T:Ekizliisko Horo
L:1/8
O:Bulgaria 
M:6/8
Q:1/4=160
S:Adapted from Richard Geisler 
S:Music to 31 of Your Favorite Bulgarian Folkdances (c) 1984
%P ABACDEFGHABAC
K:Cmaj
%P: A
|:"C" FGG .G2 G| ~GGF ~EED| "G"FGG G2 G| DD z DDC| 
"C" ~AAG ~GGF| ~GGF ~EED| "G"FGG G2 G| DDz DDC :|
%%sep 10 10
%P: B
"C" EEG FFD|EEC "G" DDC|EEG FFD| EEC DDC|
EEG, FFD| EEC DDD| "D" CDD CB,C| "G" DDz DDC|
%%sep 10 10
%P: A
|:"C" FGG .G2 G| ~GGF ~EED| "G"FGG G2 G| DD z DDC| 
"C" ~AAG ~GGF| ~GGF ~EED| "G"FGG G2 G| DDz DDC :|
%%sep 10 10
%P: C
"C" EEC FFD| EEC "G" DDC| EEC FFD| EEC DDC|
EEC FFD| EEC DDC| "D7" EEC EEC| "G" DDz DDz|
%%sep 10 10
%P: D
|:"F" F2G AAG| GFG FFE| "C" FGG CDE| "F" FFCFFC|
.F2 G AAG| GFG FFE| "C" FGG CDE| "G" DDz DDC :|
%%sep 10 10
%P: E 
"C" (3EFE G FFD| GFE "G" DDC|(3EFE G FFD| GFE DDC|
(3EFE G FFD| GFE DDC| "D7" CDD CB,C| "G" DDz DDD|
%%sep 10 10
%P: F
|"G" .C2 z D/2D/2 D2| G/2G/2z2 F/2F/2 z2|\
D/2D/2z2 F/2F/2 z2| "C" E/2E/2 z2 EED|
C3 "G" D/2D/2 D2| G/2G/2 z2 FFD| C3 D/2D/2 D2| D/2D/2 D2 D/2D/2 D2|
|"G" .C2 z D/2D/2 D2| G/2G/2z2 F/2F/2 z2|\
D/2D/2z2 F/2F/2 z2| "C" E/2E/2 z2 EED|
C3 "G"
